Hatter-kde/actions/22/format-align-vertical-top.svg

<?xml version="1.0" encoding="UTF-8"?>
<svg viewBox="0 0 22 22" xmlns="http://www.w3.org/2000/svg">
 <defs id="defs3051">
  <style id="current-color-scheme" type="text/css">.ColorScheme-Text {
        color:#363636;
      }</style>
 </defs>
 <path class="ColorScheme-Text" d="m3 3v1h1 14 1v-1h-1-14-1zm8 3-3 4h2v6 2 1h2v-1-3-5h2l-3-4z" fill="currentColor"/>
</svg>

<svg xmlns="http://www.w3.org/2000/svg" viewBox="0 0 22 22">
  <defs id="defs3051">
    <style type="text/css" id="current-color-scheme">
      .ColorScheme-Text {
        color:#363636;
      }
      </style>
  </defs>
 <path 
    style="fill:currentColor;fill-opacity:1;stroke:none" 
    d="M 3 3 L 3 4 L 4 4 L 18 4 L 19 4 L 19 3 L 18 3 L 4 3 L 3 3 z M 11 6 L 8 10 L 10 10 L 10 16 L 10 18 L 10 19 L 12 19 L 12 18 L 12 15 L 12 10 L 14 10 L 11 6 z "
    class="ColorScheme-Text"
    />  
</svg>
